X: 1875
T: Sir Terence Lewis Triumphal March to the Gates of Bogo Road Jail
C:Bill Montgomery, Kiama, NSW
B: australian traditional tunes wiki
M:4/4
L:1/8
R: March
Q: 1/4=100
K:D
V:1 
fe||"D"d2d>e dAFA|"G"B2dB"D"A2de|fa^ga ba"B7"=ga|"E"e6"A"fe|
"D"d2d>e dAFA|"G"B2dB"D"A2d>e|fa^ga "Em"=ge"A7"ce|"D"d6fg|
"D"a2ag fafd|"G"B>c dB"D"A2de|fa^ga "B7"ba=ga|"E7"e6"A7"fe|
"D"d2d>e dAFA|"G"B2dB"D"A2d>e|fa^ga "Em"=ge"A7"ce|"D"d6||
% abcbook-tune_id 6342d53a4444be767299b270


% abcbook-boost 0
% abcbook-tablature 
% abcbook-transpose 
% abcbook-lastupdated 1665324389766
% abcbook-soundfonts 
% abcbook-repeats 1
% NFF Book 2018

